X: 26345
T: Mermaid Of Mullaghmore, The
R: reel
M: 4/4
K: Dmajor
FDDF ABAF|GAAF GFED|FGAF D2 (3efg|1 fdec dBBG:|2 fdec defg||
a2fa dafa|g2e=c Gceg|a2fa dafa|g2ag fdd2|
a2fa dafa|g2e=c Gceg|fage fdec|dBBG FDD2||

